X: 16396
T: Gyn Ennym!
R: slide
M: 12/8
K: Gmajor
D|G2GBd d2e dBG|A2A AGA BAGE2D|
G2G GBd d2e dBG|ABc AGA (G3G2):|
d|e2ee2d e2fg2e|d2B BAG BAGE2D|
G2G GBd d2e dBG|ABc AGA (G3G2):|

